!!!SOCIAL_FUNCTION:	bird dance songs
!!!PDT:	1956
!!!OTL: No_185_Old_Man's_Dance_Song_(d).krn
!!!LANG: Non-Tone
!!!LING_GROUP: Muskogean
!!!REG: Florida
**kern
*staff1
=1-
*clefF4
*k[b-e-a-]
*M2/4
4G\
16A-\LK
8.G\J
=2!|:
4B-\
12B-\L
12A-\
12G\J
=3
4G\
4A-\
=4
4B-\
12B-\L
12A-\
12G\J
=5
4A-\
4A-\
=6
8G\L
8E-\J
8E-\
8r
=7
8G\L
8G\J
4G\
=8
8G\
8r
4A-\
=9
8G\L
8E-\J
4E-\
=10
16G\LK
8.G\J
4A-\
=11
4B-\
12B-\L
12A-\
12G\J
=12
4G\
(8G\L
8B-\J)
=13
(8A-\L
8G\J)
4A-\
=14||
*M3/4
4A-\
8G\L
8E-\J
4E-\
=15||
*M2/4
4A-\
8A-\L
8G\J
=16
4A-\
4A-\
=17
8G\L
8E-\J
4E-\
=18
4G\
4A-\
==:|!
*-
